images/call-emergency.svg

<?xml version="1.0" encoding="utf-8"?>
<!-- Generator: Adobe Illustrator 17.1.0, SVG Export Plug-In . SVG Version: 6.00 Build 0)  -->
<!DOCTYPE svg PUBLIC "-//W3C//DTD SVG 1.1//EN" "http://www.w3.org/Graphics/SVG/1.1/DTD/svg11.dtd">
<svg version="1.1" id="Layer_1" xmlns="http://www.w3.org/2000/svg" xmlns:xlink="http://www.w3.org/1999/xlink" x="0px" y="0px"
	 viewBox="0 0 30 30" enable-background="new 0 0 30 30" xml:space="preserve">
<g>
	<g>
		<path fill-rule="evenodd" clip-rule="evenodd" d="M21,17c4.4,0,8-3.6,8-8c0-4.4-3.6-8-8-8s-8,3.6-8,8C13,13.4,16.6,17,21,17z
			 M15.4,7H19V3.4C19.6,3.1,20.3,3,21,3c0.7,0,1.4,0.1,2,0.4V7h3.6C26.9,7.6,27,8.3,27,9c0,0.7-0.1,1.4-0.4,2H23v3.6
			c-0.6,0.2-1.3,0.4-2,0.4c-0.7,0-1.4-0.1-2-0.4V11h-3.6C15.1,10.4,15,9.7,15,9C15,8.3,15.1,7.6,15.4,7z M22.6,19.9
			c-0.7,0.5-1.4,1-2.1,1.4l0,0c-1.5,0.7-4.8-0.9-7.8-3.9c-3-3-4.6-6.3-3.9-7.8l0,0c0.4-0.7,0.9-1.4,1.4-2.1L4.2,0.8
			c-1.2,1.4-2.2,2.9-3,4.5c0.8,4.3,4,9.7,8.9,14.6c4.9,4.9,10.4,8.1,14.6,8.9c1.6-0.8,3.1-1.7,4.5-3L22.6,19.9z"/>
	</g>
</g>
</svg>

<?xml version="1.0" encoding="UTF-8" standalone="no"?>
<!-- Created with Inkscape (http://www.inkscape.org/) -->

<svg
   xmlns:dc="http://purl.org/dc/elements/1.1/"
   xmlns:cc="http://creativecommons.org/ns#"
   xmlns:rdf="http://www.w3.org/1999/02/22-rdf-syntax-ns#"
   xmlns:svg="http://www.w3.org/2000/svg"
   xmlns="http://www.w3.org/2000/svg"
   xmlns:inkscape="http://www.inkscape.org/namespaces/inkscape"
   version="1.1"
   width="30"
   height="30"
   viewBox="0 0 30 30"
   id="svg2">
  <metadata
     id="metadata10">
    <rdf:RDF>
      <cc:Work
         rdf:about="">
        <dc:format>image/svg+xml</dc:format>
        <dc:type
           rdf:resource="http://purl.org/dc/dcmitype/StillImage" />
      </cc:Work>
    </rdf:RDF>
  </metadata>
  <defs
     id="defs8" />
  <path
     d="m 21,17 c 4.4,0 8,-3.6 8,-8 0,-4.4 -3.6,-8 -8,-8 -4.4,0 -8,3.6 -8,8 0,4.4 3.6,8 8,8 z M 15.4,7 H 19 V 3.4 C 19.6,3.1 20.3,3 21,3 c 0.7,0 1.4,0.1 2,0.4 V 7 h 3.6 c 0.3,0.6 0.4,1.3 0.4,2 0,0.7 -0.1,1.4 -0.4,2 H 23 v 3.6 C 22.4,14.8 21.7,15 21,15 20.3,15 19.6,14.9 19,14.6 V 11 H 15.4 C 15.1,10.4 15,9.7 15,9 15,8.3 15.1,7.6 15.4,7 z m 7.2,12.9 c -0.7,0.5 -1.4,1 -2.1,1.4 C 19,22 15.7,20.4 12.7,17.4 9.7,14.4 8.1,11.1 8.8,9.6 9.2,8.9 9.7,8.2 10.2,7.5 L 4.2,0.8 C 3,2.2 2,3.7 1.2,5.3 c 0.8,4.3 4,9.7 8.9,14.6 4.9,4.9 10.4,8.1 14.6,8.9 1.6,-0.8 3.1,-1.7 4.5,-3 l -6.6,-5.9 z"
     inkscape:connector-curvature="0"
     id="path4" />
</svg>
